assets/pulse/pulse-5.svg

<svg width="220" height="130" viewBox="0 0 220 130" fill="none" xmlns="http://www.w3.org/2000/svg">
<path d="M19.5 79.0612H20V84.3673H19.5V86.4898H20V91.7959H19.5V93.9184H20V99.2245H19.5V101.347H20V106.653H19.5V108.776H20V114.082H19.5V116.204H20V121.51H19.5V123.633H20V128.939H19.5V129.5H19.0476V130H14.2857V129.5H12.381V130H7.61905V129.5H5.71429V130H0.952381V129.5H0.5V129.023H0V124.135H0.5V122.18H0V117.293H0.5V115.338H0V110.451H0.5V108.496H0V103.609H0.5V101.654H0V96.7669H0.5V94.812H0V89.9248H0.5V87.9699H0V83.0827H0.5V81.1278H0V76.2406H0.5V74.2857H0V69.3985H0.5V67.4436H0V62.5564H0.5V60.6015H0V55.7143H0.5V53.7594H0V48.8722H0.5V46.9173H0V42.0301H0.5V40.0752H0V35.188H0.5V33.2331H0V28.3459H0.5V26.391H0V21.5038H0.5V19.5489H0V14.6617H0.5V12.7068H0V7.81955H0.5V5.86466H0V0.977444H0.5V0.5H0.952381V0H5.71429V0.5H7.61905V0H12.381V0.5H14.2857V0H19.0476V0.5H19.5V1.02041H20V6.12245H19.5V8.16327H20V13.2653H19.5V15.3061H20V20.4082H19.5V22.449H20V27.551H19.5V29.5918H20V34.6939H19.5V36.7347H20V41.8367H19.5V43.8776H20V48.9796H19.5V50C19.5 50.3436 19.5386 50.6788 19.6119 51.0013L20.0995 50.8905C20.4392 52.3846 21.6154 53.5608 23.1095 53.9005L22.9987 54.3881C23.3212 54.4614 23.6564 54.5 24 54.5H25V54H30V54.5H32V54H37V54.5H39V54H44V54.5H46V54H51V54.5H53V54H58V54.5H60V54H65V54.5H67V54H72V54.5H74V54H79V54.5H81V54H86V54.5H88V54H93V54.5H95V54H100V54.5H102V54H107V54.5H109V54H114V54.5H116V54H121V54.5H123V54H128V54.5H130V54H135V54.5H137V54H142V54.5H144V54H149V54.5H151V54H156V54.5H158V54H163V54.5H165V54H170V54.5H172V54H177V54.5H179V54H184V54.5H186V54H191V54.5H193V54H198V54.5H200V54H205V54.5H207V54H212V54.5H214V54H219V54.5H219.5V54.9524H220V59.7143H219.5V61.619H220V66.381H219.5V68.2857H220V73.0476H219.5V73.5H219V74H214V73.5H212V74H207V73.5H205V74H200V73.5H198V74H193V73.5H191V74H186V73.5H184V74H179V73.5H177V74H172V73.5H170V74H165V73.5H163V74H158V73.5H156V74H151V73.5H149V74H144V73.5H142V74H137V73.5H135V74H130V73.5H128V74H123V73.5H121V74H116V73.5H114V74H109V73.5H107V74H102V73.5H100V74H95V73.5H93V74H88V73.5H86V74H81V73.5H79V74H74V73.5H72V74H67V73.5H65V74H60V73.5H58V74H53V73.5H51V74H46V73.5H44V74H39V73.5H37V74H32V73.5H30V74H25V73.5H24C23.6564 73.5 23.3211 73.5386 22.9987 73.6119L23.1095 74.0995C21.6154 74.4392 20.4392 75.6154 20.0995 77.1095L19.6119 76.9987C19.5386 77.3212 19.5 77.6564 19.5 78V79.0612Z" stroke="#53D084" stroke-dasharray="2 5"/>
</svg>

<svg id="Layer_1" data-name="Layer 1" xmlns="http://www.w3.org/2000/svg" viewBox="0 0 221 131">
<defs>
<style>
.cls-1,.cls-2,.cls-3,.cls-4{fill:none;}.cls-1,.cls-2,.cls-3{stroke:#53d084;}.cls-1{stroke-dasharray:2 5;}.cls-2,.cls-3,.cls-4{stroke-miterlimit:10;}.cls-3{stroke-width:1.01px;}.cls-4{stroke:#63bf81;}
</style>
</defs>
<path class="cls-1" d="M19.5,79.06H20v5.31h-.5v2.12H20V91.8h-.5v2.12H20v5.3h-.5v2.13H20v5.3h-.5v2.13H20v5.3h-.5v2.12H20v5.31h-.5v2.12H20v5.31h-.5v.56h-.45v.5H14.29v-.5H12.38v.5H7.62v-.5H5.71v.5H1v-.5H.5V129H0v-4.88H.5v-2H0v-4.89H.5v-2H0v-4.89H.5v-2H0v-4.89H.5v-2H0V96.77H.5v-2H0V89.92H.5V88H0V83.08H.5v-2H0V76.24H.5V74.29H0V69.4H.5v-2H0V62.56H.5v-2H0V55.71H.5v-2H0V48.87H.5V46.92H0V42H.5v-2H0V35.19H.5v-2H0V28.35H.5v-2H0V21.5H.5V19.55H0V14.66H.5V12.71H0V7.82H.5v-2H0V1H.5V.5H1V0H5.71V.5H7.62V0h4.76V.5h1.91V0h4.76V.5h.45V1H20v5.1h-.5v2H20v5.11h-.5v2H20v5.1h-.5v2H20v5.1h-.5v2H20v5.1h-.5v2H20v5.11h-.5v2H20V49h-.5v1a4.71,4.71,0,0,0,.11,1l.49-.11a4,4,0,0,0,3,3l-.11.49a4.71,4.71,0,0,0,1,.11h1V54h5v.5h2V54h5v.5h2V54h5v.5h2V54h5v.5h2V54h5v.5h2V54h5v.5h2V54h5v.5h2V54h5v.5h2V54h5v.5h2V54h5v.5h2V54h5v.5h2V54h5v.5h2V54h5v.5h2V54h5v.5h2V54h5v.5h2V54h5v.5h2V54h5v.5h2V54h5v.5h2V54h5v.5h2V54h5v.5h2V54h5v.5h2V54h5v.5h2V54h5v.5h2V54h5v.5h2V54h5v.5h2V54h5v.5h2V54h5v.5h2V54h5v.5h.5V55h.5v4.76h-.5v1.91h.5v4.76h-.5v1.91h.5v4.76h-.5v.45H219V74h-5v-.5h-2V74h-5v-.5h-2V74h-5v-.5h-2V74h-5v-.5h-2V74h-5v-.5h-2V74h-5v-.5h-2V74h-5v-.5h-2V74h-5v-.5h-2V74h-5v-.5h-2V74h-5v-.5h-2V74h-5v-.5h-2V74h-5v-.5h-2V74h-5v-.5h-2V74h-5v-.5h-2V74h-5v-.5h-2V74h-5v-.5h-2V74h-5v-.5h-2V74H95v-.5H93V74H88v-.5H86V74H81v-.5H79V74H74v-.5H72V74H67v-.5H65V74H60v-.5H58V74H53v-.5H51V74H46v-.5H44V74H39v-.5H37V74H32v-.5H30V74H25v-.5H24a4.71,4.71,0,0,0-1,.11l.11.49a4,4,0,0,0-3,3L19.61,77a4.71,4.71,0,0,0-.11,1Z" transform="translate(0.5 0.5)"/>
<path class="cls-2" d="M20,0l.27,48.25S20.2,54,28,54H220" transform="translate(0.5 0.5)"/>
<polyline class="cls-4" points="0.5 0.5 0.5 64.5 220.5 64.5 0.5 64.5 0.5 130.5"/>
<path class="cls-3" d="M20.06,130l.27-50.09S20.26,74,28.06,74h192" transform="translate(0.5 0.5)"/>
</svg>
